X:57
T: Jiejie meimei liang duo hua
N: C0074
O: China, Shanxi, Dingxiang
S: I, 293]
N: neuer Text
N: Vereinzelt Verzierungen.
R: Xiaodiao. Xin minge]
M: 2/4
L: 1/8
K: C
ee2e | d2dd | eged | c3d
ee2e | dedc | BdBA | G4
G3A | c2e2 | dedG | A3z
d^cdd | egBA | GEGA | c2BA | GAzE | D2z2

